X:357
T:
R:polska
S:Uppt. efter kyrkoherden Joneson i Fardhem.
N:Denna melodi är en variant av föregående.
O:Gotland, Fardhem
M:3/4
L:1/16
K:G
GABc d2ef f2g2|e2ed c2e2 =fedc|Bcde =fedc BdBG|1 AcAF GFGD CB,A,G,:|2 AcAF A3G G4::
G3B dBGB dBGB|F3A cAFA cAFA|GDGB dBGB dBGB|ADFA cAFA cAFA|GABc d2ef f2g2|
e3d cege =fedc|Bcde =fedc BdBG|AcAF [F2A2]G2 G4:|

